X:1
T:Only a Touch!
T:Only a Touch!
T:Peter Philip Bilhorn
T:Cynthie Corwin Hannon Wilson, 1891
T:Public Domain Courtesy of the Cyber Hymnal™
C:Peter Philip Bilhorn
Z:Public Domain
Z:Courtesy of the Cyber Hymnal™
%%score ( 1 2 ) ( 3 4 )
L:1/8
Q:1/4=88
M:6/8
K:F
V:1 treble 
V:2 treble 
V:3 bass 
V:4 bass 
V:1
 [Fc]>[Fc][Fc] [FA] z [CF]/[CF]/ | ([DG][DF])!>(![B,D]!>)! [A,C]2 [CF]/[CF]/ | %2
w: 1.~On- ly a touch of the|tremu- * lous hand, As the|
w: 2.~On- ly a touch! but the|answer * came swift, And tho’|
w: 3.~On- ly a touch! of the|tremu- * lous soul, As she|
w: 4.~On- ly a touch of His|gar- * ment’s hem, With a|
 [EG]>[EG][EG] [Ec]2 [EG] | [FA]3- [FA]2 z | [Fc]>[Fc][Fc] [FA] z [CF]/[CF]/ | %5
w: cur- i- ous throng drew|nigh; *|On- ly a touch! but how|
w: all of her living was|spent, *|On- ly a touch! what a|
w: pressed in the surg- ing|throng; *|On- ly a touch! yet it|
w: hope in His heal- ing|grace; *|On- ly a touch! with a|
!<(! (F[EG])!<)![_EA] !fermata![DB]2 [Fd] | [Fc]>[FA]F!>(! [EG]2 F!>)! | F3- F2 z || %8
w: wondrous * and grand! The|Mas- ter was pass- ing|by. *|
w: glori- * ous gift, The|heal- ing to her was|sent. *|
w: made * her whole, And|vir- tue had made her|strong. *|
w: faith * in Him, He|turned and be- held her|face. *|
"^Refrain" [DB]>[DB][DB] [Fd]2 z | [Fc]>[Fc][Fc] [FA]2 z | [EG]<!<(![EG][EG]!<)! [F=B]2 [FG] | %11
w: |||
w: |||
w: |||
w: |||
 [Ec]6 | [Fc]>[Fc][Fc] [FA] z [CF]/[CF]/ | (GF)[B,D] [A,C]2 !fermata![CF] | %14
w: |||
w: |||
w: |||
w: |||
 [DG]/[DG] z/ [DG]"^riten." [CF]2 [CE] | [CF]3- [CF]2 z |] %16
w: ||
w: ||
w: ||
w: ||
V:2
 x6 | x6 | x6 | x6 | x6 | F x5 | x2 F x F x | F3- F2 x || x6 | x6 | x6 | x6 | x6 | D2 x4 | x6 | %15
 x6 |] %16
V:3
 [F,A,]>[F,A,][F,A,] [F,C] z [F,A,]/[F,A,]/ | ([B,,B,][B,,B,])[B,,F,] [F,,F,]2 [F,A,]/[F,A,]/ | %2
w: ||
 [C,B,]>[C,B,][C,B,] [C,G,]2 [C,C] | [F,C]3- [F,C]2 z | %4
w: ||
 [F,A,]>[F,A,][F,A,] [F,C] z [F,A,]/[F,A,]/ | [F,A,][F,B,][F,C] !fermata![B,,B,]2 [B,,B,] | %6
w: ||
 [C,A,]>[C,C][C,A,] [C,B,]2 [F,A,] | [F,A,]3- [F,A,]2 z || [B,,B,]>[B,,B,][B,,B,] [B,,B,]2 z | %9
w: ||On- ly a touch!|
 [F,A,]>[F,A,][F,A,] [F,C]2 z | [G,C]<[G,C][G,C] [G,D]2 [G,=B,] | (C3 B,3) | %12
w: on- ly a touch!|Touch Him, and you’ll know|why; *|
 [F,A,]>[F,A,][F,A,] [F,C] z [F,A,]/[F,A,]/ | [B,,B,]2 [B,,F,] [F,,F,]2 !fermata![F,A,] | %14
w: On- ly a touch of His|gar- ment’s hem: O|
 [B,,B,]/[B,,B,] z/ [B,,B,] [C,A,]2 [C,B,] | [F,,F,A,]3- [F,,F,A,]2 z |] %16
w: touch Him! ere He pass|by. *|
V:4
 x6 | x6 | x6 | x6 | x6 | x6 | x6 | x6 || x6 | x6 | x6 | C,6 | x6 | x6 | x6 | x6 |] %16

